theme/dist/icons/plus-circle-green.svg

<svg width="24" height="24" viewBox="0 0 24 24" fill="none" xmlns="http://www.w3.org/2000/svg"><path d="M12 3.28125C7.18594 3.28125 3.28125 7.18594 3.28125 12 3.28125 16.8141 7.18594 20.7188 12 20.7188 16.8141 20.7188 20.7188 16.8141 20.7188 12 20.7188 7.18594 16.8141 3.28125 12 3.28125zm4.5 9.28125C16.5 12.6656 16.4156 12.75 16.3125 12.75H12.75v3.5625C12.75 16.4156 12.6656 16.5 12.5625 16.5h-1.125C11.3344 16.5 11.25 16.4156 11.25 16.3125V12.75H7.6875C7.58437 12.75 7.5 12.6656 7.5 12.5625v-1.125C7.5 11.3344 7.58437 11.25 7.6875 11.25H11.25V7.6875C11.25 7.58437 11.3344 7.5 11.4375 7.5h1.125C12.6656 7.5 12.75 7.58437 12.75 7.6875V11.25h3.5625C16.4156 11.25 16.5 11.3344 16.5 11.4375v1.125z" fill="#d9f7be"/><path d="M16.3125 11.25H12.75V7.6875C12.75 7.58437 12.6656 7.5 12.5625 7.5h-1.125C11.3344 7.5 11.25 7.58437 11.25 7.6875V11.25H7.6875C7.58437 11.25 7.5 11.3344 7.5 11.4375v1.125C7.5 12.6656 7.58437 12.75 7.6875 12.75H11.25v3.5625C11.25 16.4156 11.3344 16.5 11.4375 16.5h1.125C12.6656 16.5 12.75 16.4156 12.75 16.3125V12.75h3.5625C16.4156 12.75 16.5 12.6656 16.5 12.5625v-1.125C16.5 11.3344 16.4156 11.25 16.3125 11.25z" fill="#237804"/></svg>

<svg width="24" height="24" viewBox="0 0 24 24" fill="none" xmlns="http://www.w3.org/2000/svg">
<path d="M12 3.28125C7.18594 3.28125 3.28125 7.18594 3.28125 12C3.28125 16.8141 7.18594 20.7188 12 20.7188C16.8141 20.7188 20.7188 16.8141 20.7188 12C20.7188 7.18594 16.8141 3.28125 12 3.28125ZM16.5 12.5625C16.5 12.6656 16.4156 12.75 16.3125 12.75H12.75V16.3125C12.75 16.4156 12.6656 16.5 12.5625 16.5H11.4375C11.3344 16.5 11.25 16.4156 11.25 16.3125V12.75H7.6875C7.58437 12.75 7.5 12.6656 7.5 12.5625V11.4375C7.5 11.3344 7.58437 11.25 7.6875 11.25H11.25V7.6875C11.25 7.58437 11.3344 7.5 11.4375 7.5H12.5625C12.6656 7.5 12.75 7.58437 12.75 7.6875V11.25H16.3125C16.4156 11.25 16.5 11.3344 16.5 11.4375V12.5625Z" fill="#D9F7BE"/>
<path d="M16.3125 11.25H12.75V7.6875C12.75 7.58437 12.6656 7.5 12.5625 7.5H11.4375C11.3344 7.5 11.25 7.58437 11.25 7.6875V11.25H7.6875C7.58437 11.25 7.5 11.3344 7.5 11.4375V12.5625C7.5 12.6656 7.58437 12.75 7.6875 12.75H11.25V16.3125C11.25 16.4156 11.3344 16.5 11.4375 16.5H12.5625C12.6656 16.5 12.75 16.4156 12.75 16.3125V12.75H16.3125C16.4156 12.75 16.5 12.6656 16.5 12.5625V11.4375C16.5 11.3344 16.4156 11.25 16.3125 11.25Z" fill="#237804"/>
</svg>
